X:38
T:O, Tabhair Dham Do L\'amh
T:O, Give Me Your Hand
B:Joyce, P. W.; "Old Irish Folk Music and Songs"
R:song air
H:From the singing of Norry Dwane of Glenosheen: 1857.
L:1/8
M:3/4
Z:Allan Garvin
K:C
fe|d2 cAAG|{G}f2 e2 dc|A2 G2 G2|G4 ef|g2 agfe|
d2 cAcd|e2 fedc|d4 ef|g2 agfe|d2 cAcd|
e2 c2 d2|{d}g4 ag|fe d2 cA|{G}f2 e2 dc|A2 G2 G2|G4||
